X: 09111
T: SUSIE'S JIG
C: Bob McQuillen 29 Sept 92
B: Bob's Note Book 9 p.111
R: jig
Z: 2017 John Chambers <jc:trillian.mit.edu>
L: 1/8
M: 6/8
K: D
B |\
AFA dBA | FDD D2F | AFA dBA | FEE E2F |
GFG BAG | FDF A2A | Bed cBc | edd d2 :|
|: e |\
fdf ecB | ABA Ade | fdf ede | fee e2a |
faf def | edB AFA | Bed cBc | dDD D2 :|
%%begintext align
%% Every spring I'm lucky enough
%% to attend a real nice musical week-end in Falls Village
%% CT, and Susan Deane Miller is always there, too. Talk
%% about your fringe benefits!
%%endtext

%%sep 1 1 500

%%sep 1 1 500

